packages/match-icons/sendgrid/svg/expert-services.svg

<svg fill="none" height="32" viewBox="0 0 32 32" width="32" xmlns="http://www.w3.org/2000/svg"><g stroke="#394762" stroke-linecap="round" stroke-linejoin="round" stroke-width="1.7"><path d="m6.40933 17.3893-5.40933 6.6106 5 1 2 6 5.2587-8.3439"/><path d="m25.5905 17.3893 5.4094 6.6106-5 1-2 6-5.2587-8.3439"/><path d="m27.0001 12c-.0012 2.3956-.7847 4.7252-2.2315 6.6346-1.4467 1.9094-3.4775 3.294-5.7835 3.9433-2.3059.6492-4.7608.5275-6.9912-.3465-2.23049-.8741-4.11443-2.4527-5.36529-4.4958-1.25087-2.0431-1.80022-4.4388-1.5645-6.8228.23573-2.38396 1.24363-4.62571 2.8704-6.38425 1.62678-1.75855 3.78339-2.93766 6.14179-3.35798 2.3585-.420321 4.7896-.05886 6.9238 1.02942"/><path d="m24 7-7.2933 7.2933c-.0928.0929-.2029.1666-.3242.2169s-.2512.0761-.3825.0761-.2612-.0258-.3825-.0761-.2314-.124-.3242-.2169l-2.2933-2.2933"/></g></svg>

<svg width="32" height="32" viewBox="0 0 32 32" fill="none" xmlns="http://www.w3.org/2000/svg">
<path d="M6.40933 17.3893L1 23.9999L6 24.9999L8 30.9999L13.2587 22.656" stroke="#394762" stroke-width="1.7" stroke-linecap="round" stroke-linejoin="round"/>
<path d="M25.5905 17.3893L30.9999 23.9999L25.9999 24.9999L23.9999 30.9999L18.7412 22.656" stroke="#394762" stroke-width="1.7" stroke-linecap="round" stroke-linejoin="round"/>
<path d="M27.0001 12C26.9989 14.3956 26.2154 16.7252 24.7686 18.6346C23.3219 20.544 21.2911 21.9286 18.9851 22.5779C16.6792 23.2271 14.2243 23.1054 11.9939 22.2314C9.76341 21.3573 7.87947 19.7787 6.62861 17.7356C5.37774 15.6925 4.82839 13.2968 5.06411 10.9128C5.29984 8.52884 6.30774 6.28709 7.93451 4.52855C9.56129 2.77 11.7179 1.59089 14.0763 1.17057C16.4348 0.750249 18.8659 1.11171 21.0001 2.19999" stroke="#394762" stroke-width="1.7" stroke-linecap="round" stroke-linejoin="round"/>
<path d="M24 7L16.7067 14.2933C16.6139 14.3862 16.5038 14.4599 16.3825 14.5102C16.2612 14.5605 16.1313 14.5863 16 14.5863C15.8687 14.5863 15.7388 14.5605 15.6175 14.5102C15.4962 14.4599 15.3861 14.3862 15.2933 14.2933L13 12" stroke="#394762" stroke-width="1.7" stroke-linecap="round" stroke-linejoin="round"/>
</svg>
